X: 10554
M: C
L: 1/8
K: D
z |\
d3c d2f2 | c>dcA F2GA |\
{A}B2(AG) d2(cA) | G3F D3 :|\
|: G |\
d2g2 g3a | (b>a)(gf) d3f |\
(cd)(fg) {fg}a2g>a | f2(FG) (BA)(GF) |\


